X:38
T:Little Sixpence. TJD.38
M:2/4
L:1/16
Q:1/4=110
S:T.J.Dixon MS1, Lincolnshire, early 19thC
R:quick step
A:Lincolnshire, Holton le Moor
Z:vmp.R.Greig2010
K:D
DEFD A2A2|BcdB A2A2|G2GG F2d2|E2c2d4:|!
|:ded2 ccc2|BcdB AAA2|GABG FGAF|E2ed d4:|]

